icons/hexagon-percent-outline.svg

<svg xmlns="http://www.w3.org/2000/svg" width="24" height="24" viewBox="0 0 24 24">
  <path d="M16.3174576,1 C17.4115312,1 18.4188507,1.59559898 18.9461053,2.55424375 L18.9461053,2.55424375 L23.3461053,10.5542438 C23.8412416,11.4544917 23.8412416,12.5455083 23.3461053,13.4457562 L23.3461053,13.4457562 L18.9461053,21.4457562 C18.4188507,22.404401 17.4115312,23 16.3174576,23 L16.3174576,23 L7.68254244,23 C6.58846875,23 5.58114934,22.404401 5.05389472,21.4457562 L5.05389472,21.4457562 L0.653894716,13.4457562 C0.158758351,12.5455083 0.158758351,11.4544917 0.653894716,10.5542438 L0.653894716,10.5542438 L5.05389472,2.55424375 C5.58114934,1.59559898 6.58846875,1 7.68254244,1 L7.68254244,1 Z M16.3174576,3 L7.68254244,3 C7.31785121,3 6.98207807,3.19853299 6.80632653,3.51808125 L6.80632653,3.51808125 L2.40632653,11.5180813 C2.24128108,11.8181639 2.24128108,12.1818361 2.40632653,12.4819187 L2.40632653,12.4819187 L6.80632653,20.4819187 C6.98207807,20.801467 7.31785121,21 7.68254244,21 L7.68254244,21 L16.3174576,21 C16.6821488,21 17.0179219,20.801467 17.1936735,20.4819187 L17.1936735,20.4819187 L21.5936735,12.4819187 C21.7587189,12.1818361 21.7587189,11.8181639 21.5936735,11.5180813 L21.5936735,11.5180813 L17.1936735,3.51808125 C17.0179219,3.19853299 16.6821488,3 16.3174576,3 L16.3174576,3 Z M16.5606602,14.4393398 C17.1464466,15.0251263 17.1464466,15.9748737 16.5606602,16.5606602 C15.9748737,17.1464466 15.0251263,17.1464466 14.4393398,16.5606602 C13.8535534,15.9748737 13.8535534,15.0251263 14.4393398,14.4393398 C15.0251263,13.8535534 15.9748737,13.8535534 16.5606602,14.4393398 Z M16.7071068,7.29289322 C17.0675907,7.65337718 17.0953203,8.22060824 16.7902954,8.61289944 L16.7071068,8.70710678 L8.70710678,16.7071068 C8.31658249,17.0976311 7.68341751,17.0976311 7.29289322,16.7071068 C6.93240926,16.3466228 6.90467972,15.7793918 7.20970461,15.3871006 L7.29289322,15.2928932 L15.2928932,7.29289322 C15.6834175,6.90236893 16.3165825,6.90236893 16.7071068,7.29289322 Z M9.56066017,7.43933983 C10.1464466,8.02512627 10.1464466,8.97487373 9.56066017,9.56066017 C8.97487373,10.1464466 8.02512627,10.1464466 7.43933983,9.56066017 C6.85355339,8.97487373 6.85355339,8.02512627 7.43933983,7.43933983 C8.02512627,6.85355339 8.97487373,6.85355339 9.56066017,7.43933983 Z"/>
</svg>

<svg xmlns="http://www.w3.org/2000/svg" viewBox="0 0 24 24">
  <path d="M16.32 1a3 3 0 0 1 2.63 1.55l4.4 8c.5.9.5 2 0 2.9l-4.4 8A3 3 0 0 1 16.32 23H7.68a3 3 0 0 1-2.63-1.55l-4.4-8a3 3 0 0 1 0-2.9l4.4-8A3 3 0 0 1 7.68 1zm0 2H7.68a1 1 0 0 0-.87.52l-4.4 8a1 1 0 0 0 0 .96l4.4 8a1 1 0 0 0 .87.52h8.64a1 1 0 0 0 .87-.52l4.4-8a1 1 0 0 0 0-.96l-4.4-8a1 1 0 0 0-.87-.52zm.24 11.44a1.5 1.5 0 1 1-2.12 2.12 1.5 1.5 0 0 1 2.12-2.12zm.15-7.15a1 1 0 0 1 .08 1.32l-.08.1-8 8a1 1 0 0 1-1.5-1.32l.08-.1 8-8a1 1 0 0 1 1.42 0zm-7.15.15a1.5 1.5 0 1 1-2.12 2.12 1.5 1.5 0 0 1 2.12-2.12z"/>
</svg>
